exported-svg/music.svg

<svg height="24" viewBox="0 0 24 24" width="24" xmlns="http://www.w3.org/2000/svg"><path d="m8 17v-11.49989689c0-.24441756.17670652-.45301089.41780051-.49319289l11.99999999-1.99998351c.3047659-.05079389.5821995.18422573.5821995.4931929v11.49988039h.5c.2761424 0 .5.2238576.5.5v2c0 1.3807119-1.1192881 2.5-2.5 2.5h-2c-1.3807119 0-2.5-1.1192881-2.5-2.5s1.1192881-2.5 2.5-2.5h2.5v-10.90965505l-11 1.83331821v11.07633684h.5c.27614237 0 .5.2238576.5.5v2c0 1.3807119-1.11928813 2.5-2.5 2.5h-2c-1.38071187 0-2.5-1.1192881-2.5-2.5s1.11928813-2.5 2.5-2.5zm12.4958953-1h-2.9958953c-.8284271 0-1.5.6715729-1.5 1.5s.6715729 1.5 1.5 1.5h2c.8284271 0 1.5-.6715729 1.5-1.5v-1.5h-.4958953c-.0013669.000011-.0027352.0000165-.0041047.0000165s-.0027378-.0000055-.0041047-.0000165zm-11.4958953 2h-3.5c-.82842712 0-1.5.6715729-1.5 1.5s.67157288 1.5 1.5 1.5h2c.82842712 0 1.5-.6715729 1.5-1.5z"/></svg>

<?xml version="1.0" encoding="UTF-8"?>
<svg width="24px" height="24px" viewBox="0 0 24 24" version="1.1" xmlns="http://www.w3.org/2000/svg" xmlns:xlink="http://www.w3.org/1999/xlink">
    <!-- Generator: Sketch 55.2 (78181) - https://sketchapp.com -->
    <title>music</title>
    <desc>Created with Sketch.</desc>
    <g id="music" stroke="none" stroke-width="1" fill="none" fill-rule="evenodd">
        <path d="M8,17 L8,5.50010311 C8,5.25568555 8.17670652,5.04709222 8.41780051,5.00691022 L20.4178005,3.00692671 C20.7225664,2.95613282 21,3.19115244 21,3.50011961 L21,15 L21.5,15 C21.7761424,15 22,15.2238576 22,15.5 L22,17.5 C22,18.8807119 20.8807119,20 19.5,20 L17.5,20 C16.1192881,20 15,18.8807119 15,17.5 C15,16.1192881 16.1192881,15 17.5,15 L20,15 L20,4.09034495 L9,5.92366316 L9,17 L9.5,17 C9.77614237,17 10,17.2238576 10,17.5 L10,19.5 C10,20.8807119 8.88071187,22 7.5,22 L5.5,22 C4.11928813,22 3,20.8807119 3,19.5 C3,18.1192881 4.11928813,17 5.5,17 L8,17 Z M20.4958953,16 L17.5,16 C16.6715729,16 16,16.6715729 16,17.5 C16,18.3284271 16.6715729,19 17.5,19 L19.5,19 C20.3284271,19 21,18.3284271 21,17.5 L21,16 L20.5041047,16 C20.5027378,16.000011 20.5013695,16.0000165 20.5,16.0000165 C20.4986305,16.0000165 20.4972622,16.000011 20.4958953,16 Z M9,18 L5.5,18 C4.67157288,18 4,18.6715729 4,19.5 C4,20.3284271 4.67157288,21 5.5,21 L7.5,21 C8.32842712,21 9,20.3284271 9,19.5 L9,18 Z" id="Combined-Shape" fill="#000000" fill-rule="nonzero"></path>
    </g>
</svg>
